packages/kaspersky-hexa-ui-icons/src/iconsSVGs/16x12/FlagCoc.svg

<svg width="16" height="12" viewBox="0 0 16 12" fill="none" xmlns="http://www.w3.org/2000/svg">
<g clip-path="url(#clip0_41818_4383)">
<rect width="16" height="12" rx="2" fill="white"/>
<mask id="mask0_41818_4383" style="mask-type:luminance" maskUnits="userSpaceOnUse" x="0" y="0" width="16" height="12">
<rect width="16" height="12" rx="2" fill="white"/>
</mask>
<g mask="url(#mask0_41818_4383)">
<rect width="16" height="12" fill="url(#paint0_linear_41818_4383)"/>
<path d="M11.265 10.5465C11.1336 10.6843 10.9139 10.6844 10.7826 10.5465L10.6429 10.4001H11.4047L11.265 10.5465ZM10.4916 1.60025C10.5853 1.60035 10.6716 1.6507 10.7181 1.73209L11.7855 3.60025L13.2582 5.91861C13.2919 5.97192 13.3099 6.03423 13.3099 6.09732V7.50357C13.3098 7.56648 13.2918 7.62813 13.2582 7.6813L11.8842 9.84537C11.823 9.94162 11.7169 9.99959 11.6029 9.99966H10.3871C10.3064 9.99961 10.2281 9.97075 10.1674 9.91763L8.07068 8.08267C8.00991 8.0295 7.93169 7.99966 7.85095 7.99966H6.53455C6.48084 7.9997 6.42785 8.01287 6.38025 8.03775L4.39001 9.08267C4.2583 9.15182 4.09625 9.12577 3.99353 9.01822L3.49646 8.49673C3.4375 8.43477 3.40466 8.3518 3.40466 8.26627V7.29654C3.4046 7.23338 3.38676 7.17116 3.35291 7.11783L2.74158 6.15591C2.68013 6.05914 2.67281 5.93716 2.72205 5.83365L3.35681 4.50064C3.38779 4.43558 3.4395 4.38179 3.5033 4.3483L4.8949 3.61783C4.91715 3.60615 4.94091 3.59688 4.96521 3.59048L6.38513 3.21744C6.42939 3.20582 6.47125 3.1852 6.5072 3.15689L7.88611 2.07193C7.94488 2.02567 8.01737 1.99966 8.09216 1.99966H8.14685C8.27542 1.99966 8.39235 2.07402 8.44763 2.19009L8.64783 2.61002C8.70309 2.72602 8.82011 2.80039 8.94861 2.80045H9.67029C9.79886 2.80045 9.91677 2.7261 9.97205 2.61002L10.2084 2.11392C10.2409 2.04552 10.2274 1.96371 10.1752 1.90884C10.0645 1.79244 10.1473 1.60025 10.308 1.60025H10.4916Z" fill="white"/>
</g>
</g>
<defs>
<linearGradient id="paint0_linear_41818_4383" x1="0" y1="0" x2="0" y2="12" gradientUnits="userSpaceOnUse">
<stop stop-color="#19BFBF"/>
<stop offset="1" stop-color="#10ACAC"/>
</linearGradient>
<clipPath id="clip0_41818_4383">
<rect width="16" height="12" fill="white"/>
</clipPath>
</defs>
</svg>

<svg xmlns="http://www.w3.org/2000/svg" width="16" height="12" fill="none" viewBox="0 0 16 12"><g clip-path="url(#a)"><rect width="16" height="12" fill="#fff" rx="2"/><mask id="b" width="16" height="12" x="0" y="0" maskUnits="userSpaceOnUse" style="mask-type:luminance"><rect width="16" height="12" fill="#fff" rx="2"/></mask><g mask="url(#b)"><path fill="url(#c)" d="M0 0h16v12H0z"/><path fill="#fff" d="M11.265 10.5465a.333.333 0 0 1-.4824 0l-.1397-.1464h.7618zm-.7734-8.9462a.261.261 0 0 1 .2265.1318l1.0674 1.8682 1.4727 2.3183a.335.335 0 0 1 .0517.1787v1.4063a.334.334 0 0 1-.0517.1777l-1.374 2.164a.333.333 0 0 1-.2813.1544h-1.2158a.334.334 0 0 1-.2197-.082l-2.0967-1.835a.334.334 0 0 0-.2198-.083H6.5347a.334.334 0 0 0-.1543.038L4.39 9.0828a.334.334 0 0 1-.3965-.0645l-.497-.5215a.335.335 0 0 1-.0918-.2304v-.9698a.335.335 0 0 0-.0518-.1787l-.6113-.9619a.334.334 0 0 1-.0196-.3223l.6348-1.333a.336.336 0 0 1 .1465-.1523l1.3916-.7305a.34.34 0 0 1 .0703-.0273l1.42-.373a.34.34 0 0 0 .122-.0606l1.379-1.085a.334.334 0 0 1 .206-.0722h.0547a.334.334 0 0 1 .3007.1904l.2002.42a.334.334 0 0 0 .3008.1904h.7217A.335.335 0 0 0 9.972 2.61l.2363-.496a.184.184 0 0 0-.0332-.2052c-.1107-.1164-.0279-.3086.1328-.3086z"/></g></g><defs><linearGradient id="c" x1="0" x2="0" y1="0" y2="12" gradientUnits="userSpaceOnUse"><stop stop-color="#19bfbf"/><stop offset="1" stop-color="#10acac"/></linearGradient><clipPath id="a"><path fill="#fff" d="M0 0h16v12H0z"/></clipPath></defs></svg>
